public/images/logos/researchgate.svg

<svg width="32" height="32" xmlns="http://www.w3.org/2000/svg">
  <g transform="matrix(1.34082 0 0 1.34082 -5.461 -5.47)">
    <symbol fill="inherit" viewBox="0 0 16 16" id="a">
      <path d="M8.807 12.433c-.68-.766-1.96-2.56-1.874-2.56C7.953 9.447 8.72 8.427 8.72 7.4c0-1.533-1.193-2.473-2.98-2.473H2.073v.853h.26l.507.087c.34.086.34.173.34.853v5.287c0 .68-.087.766-.34.853l-.507.087h-.26v.94h1.874c.513 0 1.106 0 1.706.086h.254v-.94h-.254l-.68-.086c-.253-.087-.34-.174-.34-.854l-.086-2.046h.68c.593.94 1.533 2.386 2.046 2.98.514.68 1.194.94 2.047.94.253 0 .513-.087.767-.174l.173-.086v-.767H10c-.42.087-.847-.167-1.193-.507ZM5.653 9.02H4.72V6.04h1.107c.94 0 1.533.513 1.533 1.533-.087.854-.767 1.447-1.707 1.447Zm5.887-4.513v.94h1.28v.173c0 .34-.087.513-.253.767-.174.253-.427.34-.767.34s-.513-.087-.68-.34c-.253-.254-.253-.514-.253-1.534s.086-1.366.253-1.533c.173-.173.427-.34.68-.34.513 0 .94.34.94.853l.087.254h1.106l-.086-.34c-.254-1.02-1.02-1.707-2.047-1.707-.593 0-1.02.253-1.447.593-.513.514-.593.854-.593 2.214 0 1.36.087 1.706.593 2.213.34.34.94.593 1.447.593.593 0 1.107-.253 1.533-.68.34-.34.514-.853.514-1.533v-.933Z"/>
    </symbol>
    <use href="#a"/>
  </g>
</svg>

<?xml version="1.0" encoding="UTF-8" standalone="no"?>
<svg viewBox="0 0 32 32" version="1.1" id="svg1" sodipodi:docname="www.researchgate.net.svg" width="32" height="32" inkscape:version="1.4-beta2 (9aaf4f34, 2024-07-30)" xmlns:inkscape="http://www.inkscape.org/namespaces/inkscape" xmlns:sodipodi="http://sodipodi.sourceforge.net/DTD/sodipodi-0.dtd" xmlns="http://www.w3.org/2000/svg" xmlns:svg="http://www.w3.org/2000/svg">
  <defs id="defs1" />
  <sodipodi:namedview id="namedview1" pagecolor="#ffffff" bordercolor="#000000" borderopacity="0.25" inkscape:showpageshadow="2" inkscape:pageopacity="0.0" inkscape:pagecheckerboard="0" inkscape:deskcolor="#d1d1d1" inkscape:zoom="1.625" inkscape:cx="8" inkscape:cy="7.6923077" inkscape:window-width="1440" inkscape:window-height="790" inkscape:window-x="0" inkscape:window-y="0" inkscape:window-maximized="1" inkscape:current-layer="svg1" />
  <g id="g1" transform="matrix(1.3408196,0,0,1.3408196,-5.4611585,-5.4705443)">
    <symbol fill="inherit" viewBox="0 0 16 16" id="d4db98ba-676b-4ec8-b5a6-9bde7cb26b7c">
      <path d="M 8.807,12.433 C 8.127,11.667 6.847,9.873 6.933,9.873 7.953,9.447 8.72,8.427 8.72,7.4 8.72,5.867 7.527,4.927 5.74,4.927 H 2.073 V 5.78 h 0.26 L 2.84,5.867 C 3.18,5.953 3.18,6.04 3.18,6.72 v 5.287 c 0,0.68 -0.087,0.766 -0.34,0.853 l -0.507,0.087 h -0.26 v 0.94 h 1.874 c 0.513,0 1.106,0 1.706,0.086 h 0.254 v -0.94 H 5.653 L 4.973,12.947 C 4.72,12.86 4.633,12.773 4.633,12.093 L 4.547,10.047 h 0.68 c 0.593,0.94 1.533,2.386 2.046,2.98 0.514,0.68 1.194,0.94 2.047,0.94 0.253,0 0.513,-0.087 0.767,-0.174 L 10.26,13.707 V 12.94 H 10 C 9.58,13.027 9.153,12.773 8.807,12.433 Z M 5.653,9.02 H 4.72 V 6.04 H 5.827 C 6.767,6.04 7.36,6.553 7.36,7.573 7.273,8.427 6.593,9.02 5.653,9.02 Z M 11.54,4.507 v 0.94 h 1.28 V 5.62 c 0,0.34 -0.087,0.513 -0.253,0.767 -0.174,0.253 -0.427,0.34 -0.767,0.34 -0.34,0 -0.513,-0.087 -0.68,-0.34 -0.253,-0.254 -0.253,-0.514 -0.253,-1.534 0,-1.02 0.086,-1.366 0.253,-1.533 0.173,-0.173 0.427,-0.34 0.68,-0.34 0.513,0 0.94,0.34 0.94,0.853 l 0.087,0.254 h 1.106 L 13.847,3.747 C 13.593,2.727 12.827,2.04 11.8,2.04 11.207,2.04 10.78,2.293 10.353,2.633 9.84,3.147 9.76,3.487 9.76,4.847 c 0,1.36 0.087,1.706 0.593,2.213 0.34,0.34 0.94,0.593 1.447,0.593 0.593,0 1.107,-0.253 1.533,-0.68 0.34,-0.34 0.514,-0.853 0.514,-1.533 V 4.507 Z" id="path1" />
    </symbol>
    <use href="#d4db98ba-676b-4ec8-b5a6-9bde7cb26b7c" id="use1" />
  </g>
</svg>
